!!!COM: Bach, Johann Sebastian
!!!CDT: 1685///-1750///
!!!CNT@EN: German
!!!OTL: Menuet II from Cello Suite No. 1 in G Major, BWV 1007
!!!OPR: Cello Suite No. 1 in G Major, BWV 1007
!!!OMD: Menuet II
!!!OMV: 6
!!!ODT: 1720///
!!!SCT: BWV 1007
!!!SCA: Thematisch-systematisches Verzeichnis der musikalischen Werke Johann Sebastian Bach: Bach-Werke-Verzeichnis (Schmieder)
**kern
*Icello
*>[A,A,B,B]
*>norep[A,B]
*>A
*clefF4
*k[b-]
*M3/4
*MM108
=1-
(8B-\L
8A\
8B-\)
(8D\
8E-\
8GG\J)
=2
4FF/
(4A\
4D\)
=3
(8G/L
8F#/
8G/)
(8BB-/
8C/
8EE-/J)
=4
(8DD\L
8AA\
8D\)
(8G\
8F#\
8A\J)
=5
(8B-\L
8A\
8B-\)
(8D\
8E-\
8GG\J)
=6
4FF/
(4A\
4D\)
=7
8G/L
8F#/
8G/
(8BB-/
8C/
8EEn/J)
=8
8DD/L
8G/J
(Gq/
2F#\)
=9:|!|:
*>B
8D\L
8F#\
8A\
8c\
8e-\
8d\J
=10
(8c\L
8B-\
8A\
8B-\J)
B-q/
4G\
=11
8C\L
8En\
8G\
8B-\
8d\
8c\J
=12
(8B-\L
8A\
8G\
8A\)
(8F\
8E-\J)
=13
(8D\L
8F\
8B-\
8A\
8B-\
8D\J)
=14
(8E-\L
8G\
8B-\
8A\
8B-\
8d\J)
=15
8c\L
8e-\
8d\
8B-\
8F\
8A\J
=16
(8B-\L
8F\)
8D\
8F\J
4BB-/
=17
8BBn\L
8D\
8F\
8A-\
8G\
8F\J
=18
(8E-\L
8G\
8c\
8d\J)
dq/
4e-\
=19
8AA\L
8C\
8E-\
8G\
8F\
8E-\J
=20
(8D\L
8F\
8B-\
8c\J)
cq/
4d\
=21
(8FF#/L
8AA/
8C/
8E-/
8D/
8C/J)
=22
(8BB-\L
8D\
8G\
8A\
8B-\
8G\J)
=23
8c\L
(8B-\
8A\
8G\)
8D\
8F#\J
=24
2.GG/
==:|!
*-
!!!ENC: Craig Stuart Sapp
!!!END: 2004/12/01/
